X:1
T:Polska eft. J M Dahl
R:Polska
Z:Patrik Mnsson, 5/10 2008
O:Smland
M:3/4
L:1/16
K:Am
|: "Am" e2eB c2cA "E"B2B^G | E2E^G "Am" A2AB (cB)cd | e2eB c2cA "E" B2B^G | (E^G)BG "Am" B2A2 A2 z2 :|
|: "Am" ABcd e2e2 c4 | c2e2 "Dm" f2ef d4 | "G" dBGB dBGB dBGB | "Am" cBcd e2e2 e2e2 |
e2eB c2cA "E" B2B^G | E2E^G "Am" A2AB cBcd | e2eB c2cA "E" B2B^G | E^GBG "Am" B2A2 A2 z2 :|
